src/lib/packages/icons/src/assets/filled/arrow-left-arrow-right-circle.svg

<svg width="24" height="24" viewBox="0 0 24 24" fill="none" xmlns="http://www.w3.org/2000/svg">
<path d="M12 2C6.477 2 2 6.477 2 12C2 17.523 6.477 22 12 22C17.523 22 22 17.523 22 12C22 6.477 17.523 2 12 2ZM6.46997 10.53C6.40097 10.461 6.34708 10.3791 6.30908 10.2881C6.27108 10.1971 6.25098 10.1 6.25098 9.99902C6.25098 9.89802 6.27208 9.80096 6.30908 9.70996C6.34708 9.61896 6.40197 9.53702 6.46997 9.46802L8.13696 7.80103C8.43096 7.50703 8.906 7.50903 9.198 7.80103C9.491 8.09403 9.491 8.56906 9.198 8.86206L8.81201 9.24805H15C15.414 9.24805 15.75 9.58405 15.75 9.99805C15.75 10.412 15.414 10.748 15 10.748H8.81104L9.19702 11.134C9.49002 11.426 9.49002 11.9021 9.19702 12.1951C9.05102 12.3411 8.85899 12.415 8.66699 12.415C8.47499 12.415 8.28296 12.3421 8.13696 12.1951L6.46997 10.53ZM17.6919 14.2849C17.6539 14.3759 17.599 14.4581 17.531 14.5271L15.864 16.1941C15.718 16.3401 15.526 16.4141 15.334 16.4141C15.142 16.4141 14.95 16.3411 14.804 16.1941C14.511 15.9011 14.511 15.4261 14.804 15.1331L15.1909 14.7461H9C8.586 14.7461 8.25 14.4101 8.25 13.9961C8.25 13.5821 8.586 13.2461 9 13.2461H15.189L14.803 12.8601C14.51 12.5681 14.51 12.0921 14.803 11.7991C15.096 11.5061 15.571 11.5061 15.864 11.7991L17.531 13.4661C17.6 13.5351 17.6539 13.616 17.6919 13.707C17.7299 13.798 17.75 13.8961 17.75 13.9961C17.75 14.0961 17.7289 14.1939 17.6919 14.2849Z" fill="currentColor"/>
</svg>

<svg xmlns="http://www.w3.org/2000/svg" width="24" height="24" fill="none"><path fill="currentColor" d="M12 2C6.477 2 2 6.477 2 12s4.477 10 10 10 10-4.477 10-10S17.523 2 12 2Zm-5.53 8.53a.748.748 0 0 1-.219-.531.765.765 0 0 1 .219-.531l1.667-1.667a.75.75 0 1 1 1.061 1.061l-.386.386H15a.75.75 0 0 1 0 1.5H8.811l.386.386a.75.75 0 0 1-1.06 1.061L6.47 10.53Zm11.222 3.755a.765.765 0 0 1-.161.242l-1.667 1.667a.748.748 0 0 1-1.06 0 .75.75 0 0 1 0-1.06l.387-.388H9a.75.75 0 0 1 0-1.5h6.189l-.386-.386a.75.75 0 1 1 1.061-1.06l1.667 1.666a.743.743 0 0 1 .219.53c0 .1-.021.198-.058.289Z"/></svg>
